src/sources/forus-platform/resources/_platform-common/assets/img/features/icons/email-connection/icon-step-5.svg

<svg width="26" height="25" viewBox="0 0 26 25" fill="none" xmlns="http://www.w3.org/2000/svg">
    <path fill-rule="evenodd" clip-rule="evenodd" d="M22.2657 23.6118H3.73306C3.00956 23.6121 2.31549 23.3236 1.80313 22.8097C1.29077 22.2957 1.00194 21.5983 1 20.8704V4.87942C1.00197 4.15155 1.29082 3.45418 1.80318 2.94028C2.31553 2.42638 3.00958 2.13792 3.73306 2.13815H22.2657C22.9894 2.13765 23.6837 2.426 24.1963 2.93995C24.709 3.4539 24.998 4.15145 25 4.87954V20.8704C24.998 21.5985 24.709 22.2961 24.1963 22.81C23.6837 23.324 22.9894 23.6123 22.2657 23.6118Z" stroke="white" stroke-width="1.5"/>
    <path fill-rule="evenodd" clip-rule="evenodd" d="M17.4378 6.49069C17.2857 6.49021 17.1372 6.44442 17.011 6.35909C16.8848 6.27376 16.7866 6.15271 16.7288 6.01125C16.6709 5.86979 16.656 5.71426 16.686 5.56429C16.7159 5.41432 16.7894 5.27664 16.897 5.16864C17.0047 5.06064 17.1418 4.98717 17.291 4.95751C17.4401 4.92784 17.5947 4.9433 17.7351 5.00195C17.8755 5.0606 17.9955 5.1598 18.0799 5.28702C18.1644 5.41424 18.2094 5.56378 18.2094 5.71675C18.2085 5.92214 18.1268 6.11881 17.9822 6.26382C17.8376 6.40883 17.6419 6.49039 17.4378 6.49069ZM19.3663 6.49069C19.2143 6.49021 19.0658 6.44442 18.9396 6.35909C18.8134 6.27376 18.7151 6.15271 18.6573 6.01125C18.5994 5.86979 18.5846 5.71426 18.6145 5.56429C18.6445 5.41432 18.7179 5.27664 18.8256 5.16864C18.9332 5.06064 19.0703 4.98717 19.2195 4.95751C19.3687 4.92784 19.5232 4.9433 19.6636 5.00195C19.8041 5.0606 19.9241 5.1598 20.0085 5.28702C20.0929 5.41424 20.138 5.56378 20.138 5.71675C20.137 5.92214 20.0554 6.11881 19.9108 6.26382C19.7662 6.40883 19.5705 6.49039 19.3663 6.49069ZM21.2961 6.49069C21.144 6.49021 20.9956 6.44442 20.8694 6.35909C20.7432 6.27376 20.6449 6.15271 20.5871 6.01125C20.5292 5.86979 20.5143 5.71426 20.5443 5.56429C20.5742 5.41432 20.6477 5.27664 20.7554 5.16864C20.863 5.06064 21.0001 4.98717 21.1493 4.95751C21.2985 4.92784 21.453 4.9433 21.5934 5.00195C21.7339 5.0606 21.8539 5.1598 21.9383 5.28702C22.0227 5.41424 22.0678 5.56378 22.0678 5.71675C22.0668 5.92214 21.9852 6.11881 21.8406 6.26382C21.696 6.40883 21.5002 6.49039 21.2961 6.49069Z" fill="#E6ECFF"/>
    <path d="M18.5976 13.4139C18.5976 16.4784 16.1132 18.9626 13.0488 18.9626C9.98432 18.9626 7.5 16.4784 7.5 13.4139C7.5 10.3494 9.98432 7.86499 13.0488 7.86499C16.1132 7.86499 18.5976 10.3494 18.5976 13.4139Z" fill="white"/>
    <path d="M18.5976 13.4139C18.5976 16.4784 16.1132 18.9626 13.0488 18.9626C9.98432 18.9626 7.5 16.4784 7.5 13.4139C7.5 10.3494 9.98432 7.86499 13.0488 7.86499C16.1132 7.86499 18.5976 10.3494 18.5976 13.4139Z" fill="white"/>
    <path d="M16.4543 10.4677C16.0955 10.0967 15.5142 10.0967 15.1554 10.4677L13.0492 12.6456L12.1306 13.5954L10.943 12.3673C10.5842 11.9963 10.0029 11.9963 9.64409 12.3673C9.2853 12.7383 9.2853 13.3394 9.64409 13.7104L11.4812 15.6099C11.6606 15.7955 11.8956 15.8882 12.1306 15.8882C12.3655 15.8882 12.6006 15.7955 12.78 15.6099L13.0491 15.3317L16.4541 11.8108C16.8131 11.4397 16.8131 10.8387 16.4543 10.4677Z" fill="#315EFD"/>
</svg>

<svg width="26" height="25" fill="none" xmlns="http://www.w3.org/2000/svg"><path clip-rule="evenodd" d="M22.266 23.612H3.733a2.724 2.724 0 0 1-1.93-.802A2.757 2.757 0 0 1 1 20.87V4.88c.002-.728.29-1.426.803-1.94a2.724 2.724 0 0 1 1.93-.802h18.533c.723 0 1.418.288 1.93.802.513.514.802 1.211.804 1.94v15.99a2.757 2.757 0 0 1-.804 1.94 2.724 2.724 0 0 1-1.93.802Z" stroke="#fff" stroke-width="1.5"/><path fill-rule="evenodd" clip-rule="evenodd" d="M17.438 6.49a.766.766 0 0 1-.71-.479.778.778 0 0 1 .563-1.053.765.765 0 0 1 .789.329.777.777 0 0 1-.642 1.204Zm1.928 0a.766.766 0 0 1-.709-.479.778.778 0 0 1 .169-.842.767.767 0 0 1 1.312.548.78.78 0 0 1-.227.547.77.77 0 0 1-.545.227Zm1.93 0a.766.766 0 0 1-.709-.479.778.778 0 0 1 .562-1.053.765.765 0 0 1 .79.329.777.777 0 0 1-.098.977.77.77 0 0 1-.545.227Z" fill="#E6ECFF"/><path d="M18.598 13.414a5.549 5.549 0 1 1-11.098 0 5.549 5.549 0 0 1 11.098 0Z" fill="#fff"/><path d="M18.598 13.414a5.549 5.549 0 1 1-11.098 0 5.549 5.549 0 0 1 11.098 0Z" fill="#fff"/><path d="M16.454 10.468a.897.897 0 0 0-1.299 0l-2.106 2.178-.918.95-1.188-1.229a.897.897 0 0 0-1.299 0 .973.973 0 0 0 0 1.343l1.837 1.9a.9.9 0 0 0 1.299 0l.27-.278 3.404-3.521a.972.972 0 0 0 0-1.343Z" fill="#315EFD"/></svg>
